packages/icons/src/assets/underline.svg

<svg width="16" height="16" viewBox="0 0 16 16" fill="none" xmlns="http://www.w3.org/2000/svg"><path d="M13.5 14.5H2.5V13.25H13.5V14.5Z" fill="currentColor"/><path d="M7.94289 11.912C6.65489 11.912 5.64222 11.5433 4.90489 10.806C4.16756 10.0687 3.79889 8.99067 3.79889 7.572V2H5.19889V7.516C5.19889 8.608 5.43689 9.406 5.91289 9.91C6.39822 10.414 7.07956 10.666 7.95689 10.666C8.84356 10.666 9.52489 10.414 10.0009 9.91C10.4862 9.406 10.7289 8.608 10.7289 7.516V2H12.0869V7.572C12.0869 8.99067 11.7182 10.0687 10.9809 10.806C10.2529 11.5433 9.24022 11.912 7.94289 11.912Z" fill="currentColor"/></svg>

<svg xmlns="http://www.w3.org/2000/svg" width="16" height="16" viewBox="0 0 16 16"><path d="M13.5 14.5h-11v-1.25h11zm-5.557-2.588q-1.932 0-3.038-1.106T3.799 7.572V2h1.4v5.516q0 1.638.714 2.394.728.756 2.044.756 1.33 0 2.044-.756.728-.756.728-2.394V2h1.358v5.572q0 2.128-1.106 3.234-1.091 1.106-3.038 1.106"/></svg>
